assets/fc/fc-view-details.svg

<svg xmlns="http://www.w3.org/2000/svg" width="100%" height="100%" viewBox="0 0 48 48"><path fill="#BBDEFB" d="M7 4h34v40H7z"/><g fill="#2196F3"><path d="M13 26h4v4h-4zM13 18h4v4h-4zM13 34h4v4h-4zM13 10h4v4h-4zM21 26h14v4H21zM21 18h14v4H21zM21 34h14v4H21zM21 10h14v4H21z"/></g></svg>

<svg xmlns="http://www.w3.org/2000/svg" width="100%" height="100%" viewBox="0 0 48 48"><path fill="#BBDEFB" d="M7 4H41V44H7z"/><g fill="#2196F3"><path d="M13 26H17V30H13zM13 18H17V22H13zM13 34H17V38H13zM13 10H17V14H13zM21 26H35V30H21zM21 18H35V22H21zM21 34H35V38H21zM21 10H35V14H21z"/></g></svg>
